icons/2_Variations/Nuki bg.var.svg

<svg width="1024" height="1024" viewBox="0 0 1024 1024" fill="none" xmlns="http://www.w3.org/2000/svg">
<g clip-path="url(#clip0_3_200)">
<path d="M512 1024C794.77 1024 1024 794.77 1024 512C1024 229.23 794.77 0 512 0C229.23 0 0 229.23 0 512C0 794.77 229.23 1024 512 1024Z" fill="#F9DE81"/>
<path d="M256 449.001C256.1 447.101 257.7 445.601 259.6 445.601H264.2L339.5 518.001V451.101C339.5 449.101 341.1 447.501 343.1 447.501H366C368 447.601 369.5 449.101 369.6 451.101V578.001C369.5 579.901 367.9 581.401 366 581.401H362.8C361.9 581.301 361.1 581.001 360.4 580.501L286 505.601V575.901C286 577.901 284.4 579.501 282.4 579.501H259.8C257.8 579.501 256.1 577.901 256 575.901V449.001ZM423.8 451.101V529.001C424.6 557.501 447.5 580.301 476 581.201C505.7 582.101 530.4 558.701 531.3 529.001V451.101C531.2 449.101 529.7 447.601 527.7 447.501H504.7C502.7 447.501 501.1 449.101 501.1 451.101V527.401C501.1 540.301 490.6 550.801 477.7 550.801C464.8 550.801 454.3 540.301 454.3 527.401V451.101C454.3 449.101 452.7 447.501 450.7 447.501H427.7C425.7 447.601 424.2 449.101 424.1 451.101H423.8ZM586.6 452.001V574.901C586.6 577.401 588.7 579.501 591.2 579.501H613.2C615.7 579.501 617.8 577.401 617.8 574.901V518.701L661.3 577.701C662.2 578.501 663.4 579.001 664.7 579.001H690.7C691.4 578.901 692.1 578.701 692.8 578.301C695 577.001 695.6 574.101 694.3 572.001L646.4 509.601L690.5 454.401C690.9 453.801 691.1 453.201 691.2 452.501C691.5 450.001 689.7 447.701 687.1 447.401H663.4C662 447.601 660.7 448.201 659.8 449.301L617.9 501.501V452.001C617.9 449.501 615.8 447.401 613.3 447.401H591.3C588.7 447.401 586.7 449.501 586.6 452.001ZM738.3 575.901C738.4 577.901 739.9 579.401 741.9 579.501H764.5C766.5 579.401 768 577.901 768.1 575.901V451.101C768 449.101 766.5 447.601 764.5 447.501H741.9C739.9 447.601 738.4 449.101 738.3 451.101V575.901ZM733.8 371.401C733.9 381.901 742.5 390.401 753 390.301C763.8 390.301 772.5 381.601 772.5 370.801C772.5 360.001 763.8 351.301 753 351.301H752.4C741.8 351.601 733.5 360.401 733.8 370.901V371.401Z" fill="white"/>
</g>
<defs>
<clipPath id="clip0_3_200">
<rect width="1024" height="1024" fill="white"/>
</clipPath>
</defs>
</svg>

<svg width="1024" height="1024" fill="none" xmlns="http://www.w3.org/2000/svg"><g clip-path="url(#a)"><path d="M512 1024c282.77 0 512-229.23 512-512S794.77 0 512 0 0 229.23 0 512s229.23 512 512 512Z" fill="#F9DE81"/><path d="M256 449.001c.1-1.9 1.7-3.4 3.6-3.4h4.6l75.3 72.4v-66.9c0-2 1.6-3.6 3.6-3.6H366c2 .1 3.5 1.6 3.6 3.6v126.9c-.1 1.9-1.7 3.4-3.6 3.4h-3.2c-.9-.1-1.7-.4-2.4-.9l-74.4-74.9v70.3c0 2-1.6 3.6-3.6 3.6h-22.6c-2 0-3.7-1.6-3.8-3.6v-126.9Zm167.8 2.1v77.9c.8 28.5 23.7 51.3 52.2 52.2 29.7.9 54.4-22.5 55.3-52.2v-77.9c-.1-2-1.6-3.5-3.6-3.6h-23c-2 0-3.6 1.6-3.6 3.6v76.3c0 12.9-10.5 23.4-23.4 23.4-12.9 0-23.4-10.5-23.4-23.4v-76.3c0-2-1.6-3.6-3.6-3.6h-23c-2 .1-3.5 1.6-3.6 3.6h-.3Zm162.8.9v122.9c0 2.5 2.1 4.6 4.6 4.6h22c2.5 0 4.6-2.1 4.6-4.6v-56.2l43.5 59c.9.8 2.1 1.3 3.4 1.3h26c.7-.1 1.4-.3 2.1-.7 2.2-1.3 2.8-4.2 1.5-6.3l-47.9-62.4 44.1-55.2c.4-.6.6-1.2.7-1.9.3-2.5-1.5-4.8-4.1-5.1h-23.7c-1.4.2-2.7.8-3.6 1.9l-41.9 52.2v-49.5c0-2.5-2.1-4.6-4.6-4.6h-22c-2.6 0-4.6 2.1-4.7 4.6Zm151.7 123.9c.1 2 1.6 3.5 3.6 3.6h22.6c2-.1 3.5-1.6 3.6-3.6v-124.8c-.1-2-1.6-3.5-3.6-3.6h-22.6c-2 .1-3.5 1.6-3.6 3.6v124.8Zm-4.5-204.5c.1 10.5 8.7 19 19.2 18.9 10.8 0 19.5-8.7 19.5-19.5s-8.7-19.5-19.5-19.5h-.6c-10.6.3-18.9 9.1-18.6 19.6v.5Z" fill="#fff"/></g><defs><clipPath id="a"><path fill="#fff" d="M0 0h1024v1024H0z"/></clipPath></defs></svg>
